X:1
T:Title
%%score { ( 1 3 ) | ( 2 4 ) }
L:1/8
Q:1/4=100
M:4/4
K:F
V:1 treble nm="Grand Piano"
V:3 treble 
V:2 bass 
V:4 bass 
V:1
 [CFA]2 [CFA]>[CFA] [DFB]2 [DFB]>[^CF] | [CFA]2 [CFA]2 z4 | %2
w: J.~Wesley~Hughes * * * * *||
 [CEc]2 [CEA]>[EG] [A,F]2 [=B,DG]>[B,DA] | [CEG]6 z2 | z4 c4 | .c2 z2 z4 | %6
w: ||||
 [DG]2 [B,D][=B,F] E2 FG |[M:3/4] [A,CF]6 |[M:1/4] AB |[M:4/4] cc c>c d .c3 | AA A>A B .A3 | %11
w: |||||
 AG G>G d2 z F | [CEG]6 G2 | ._A>A GF C3 F/G/ | _A>A GF [Ec]2 [Fd]2 | [Fc]3 [FA] [FA]2 [EG]2 | %16
w: |||||
 [A,CF]6 z2 |] %17
w: |
V:2
 F,2 F,>F, B,,2 B,,>B,, | F,2 F,2[K:treble] G2 F2 | C,2 C,>B, D,2 G,,>G,, | C,6 z2 | %4
 F, F,2 F, z2 F,2 | [B,,F,]2 [B,,F,]>[B,,D,] [A,,E,]4 | %6
 [B,,G,]2 [B,,G,][G,,G,] [C,G,C]2 [C,A,C][C,B,C] |[M:3/4] [F,,F,]6 |[M:1/4] [F,CF][F,DF] | %9
[M:4/4] [F,A,F][F,A,F] [F,A,F]>[F,A,F] [F,B,F] .[F,A,F]3 | %10
 [F,CF][F,CF] [F,CF]>[F,CF] [F,DF] .[F,CF]3 | %11
 [G,=B,D][G,B,D] [G,B,D]>[G,B,D] [F,B,D]2 [E,C][D,B,] | C,6 G,2 | ._A,>A, G,F, C,3 F,/G,/ | %14
 _A,>A, G,F, [C,G,]2 [=B,,A,]2 | [C,A,]3 [C,C] [C,C]2 [C,B,]2 | [F,,F,]6 z2 |] %17
V:3
 x8 | x8 | x8 | x8 | [CFA] [CFA]2 [CFA] [CF]2 _E2 | D-[DB] [DB]>[DF] [^CA]4 | x8 |[M:3/4] x6 | %8
[M:1/4] x2 |[M:4/4] x8 | x8 | z4 z2 G2 | x8 | x8 | x8 | x8 | x8 |] %17
V:4
 x8 | x4[K:treble] x4 | x8 | x8 | z4 A,,4 | x8 | x8 |[M:3/4] x6 |[M:1/4] x2 |[M:4/4] x8 | x8 | x8 | %12
 x8 | x8 | x8 | x8 | x8 |] %17

